packages/calcite-ui-icons/icons/range-domain-32.svg

<?xml version="1.0" encoding="UTF-8"?><svg id="icons" xmlns="http://www.w3.org/2000/svg" viewBox="0 0 32 32"><defs><style>.cls-1{fill:none;}</style></defs><rect class="cls-1" width="32" height="32"/><path d="M19.50164,12.00001l4.49835,4.5-4.51276,4.5h-1.41406l4.51276-4.5-4.49835-4.5h1.41406ZM12.50671,12.00001l-4.50671,4.5,4.48328,4.5h1.41406l-4.48328-4.5,4.50671-4.5h-1.41406ZM7,27H2.5c-.27588,0-.5-.22461-.5-.5V6.5c0-.27539.22412-.5.5-.5h4.5v-1H2.5c-.82843,0-1.5.67157-1.5,1.5v20c0,.82843.67157,1.5,1.5,1.5h4.5v-1ZM29.5,5h-4.5v1h4.5c.27588,0,.5.22461.5.5v20c0,.27539-.22412.5-.5.5h-4.5v1h4.5c.82843,0,1.5-.67157,1.5-1.5V6.5c0-.82843-.67157-1.5-1.5-1.5Z"/></svg>

<svg xmlns="http://www.w3.org/2000/svg" viewBox="0 0 32 32"><path d="M0 0h32v32H0z" style="fill:none"/><path d="M19.502 12 24 16.5 19.487 21h-1.414l4.513-4.5-4.498-4.5zm-6.995 0L8 16.5l4.483 4.5h1.414l-4.483-4.5 4.507-4.5zM7 27H2.5a.5.5 0 0 1-.5-.5v-20a.5.5 0 0 1 .5-.5H7V5H2.5A1.5 1.5 0 0 0 1 6.5v20A1.5 1.5 0 0 0 2.5 28H7zM29.5 5H25v1h4.5a.5.5 0 0 1 .5.5v20a.5.5 0 0 1-.5.5H25v1h4.5a1.5 1.5 0 0 0 1.5-1.5v-20A1.5 1.5 0 0 0 29.5 5"/></svg>
